X:1
T:BWV527
T:Sonata III BWV527
T:J.S Bach
T:Andante
C:J.S Bach
%%score 1 2 3
L:1/8
M:2/4
K:F
V:1 treble nm="Flauta"
V:2 treble nm="Violín"
V:3 bass nm="Fagot"
V:1
 f/e/(d d/)^c/(d | d/)e/d/^c/ d/e/f/g/ | ab/a/ g/f/e/d/ | ^ce A(g | g/)f/e/d/ (f/e/d/c/) | %5
 =Bd G(f | f/)e/d/c/ (e/d/c/=B/) | A/=B/A/^G/ A/B/c/d/ | ef ed | cd c=B | A2 z (d | %11
 d/)e/d/c/ d/e/^f/^g/ | ae A(c | c/)d/c/=B/ c/d/e/^f/ | gd G(=B | =B/)e/d/e/ (A2 | A2) (=B2 | %17
 =B2) (c2 | c/)=B/c/e/ d/c/d/e/ | d/c/d/f/ e/d/e/f/ | e(3f/e/d/ e(3d/c/=B/ | .c.d .c.=B | %22
 A/c/f/=B/ d/c/B/A/ | (AA/4)=B/4A/4^G/4 A/B/c/d/4e/4 | (f4 | (f)f/4)A/4G/4^F/4 G/A/B/c/4d/4 | (e4 | %27
 e/)(a/(3a/)g/(f/ (3f/)e/(d/(3d/)^c/d/ | d3/2c/4B/4 c3/2B/4A/4 | B3/2A/4G/4 A3/2G/4F/4 | G/gBA^G/ | %31
 A/gfef/ | f/e/(d d/)^c/(d | d/)e/d/^c/ d/e/f/g/ | ab/a/ g/f/e/d/ | ^ce A(g | %36
 g/)f/e/d/ (f/e/d/c/) | =Bd G(f | f/)e/d/c/ e/d/c/B/ | (A2 A/)G/A/c/ | =B/A/B/c/ B/A/B/d/ | %41
 ^c/=B/c/d/ c/B/c/e/ | d4 | e4 | f(3g/f/e/ f(3e/d/^c/ | .d.B .A.G | Fd E^c | d2 z A/B/ | %48
 cd/e/ fe/d/ | c/B/A/G/ FA | AG z f | fe z2 | z4 | z2 z (g | g)(3^f/e/d/ c'b | ba z a | %56
 b/a/(b b/)a/b | bc z b | a/g/(a a/)g/_a | _aB z =a | g3/2f/4_e/4 f3/2e/4d/4 | %61
 _e3/2d/4c/4 d3/2c/4B/4 | c/c'_ed^c/ | d/c'bab/ | b(3c'/b/a/ b(3a/g/^f/ | g_e dc | Bg A^f | %67
 g z z2 | z z/4 A/4G/4^F/4 G/A/B/c/4d/4 | (_e4 | (_e)e/4)G/4F/4E/4 F/G/A/B/4c/4 | (d4 | %72
 d/)g/f/g/ (c2 | c2) (Pd2 | d/)c/d/f/ _e/d/e/f/ | _e/d/e/g/ f/e/f/g/ | (Pf4 | (f2) f/)F/(B | %78
 B)A/4G/4F/ _ed | d(c c/)d/_e/f/ | ga/=b/ c'b/a/ | g/f/_e/d/ ce | _ed z c | c=B z =b | %84
 (3c'/g/_e/(3c/e/g/ (3b/g/e/(3c/e/g/ | (3a/f/_e/(3c/e/f/ (3a/f/e/(3c/e/f/ | %86
 (3b/f/d/(3B/d/f/ (3a/f/d/(3B/d/f/ | (3g/e/d/(3B/d/e/ (3g/e/d/(3B/d/e/ | %88
 (3a/e/^c/(3A/c/e/ (3g/e/c/(3A/c/e/ | (3f/e/d/(3A/d/e/ (3f/e/d/(3A/d/e/ | %90
 (3f/e/=B/(3^G/B/d/ (3f/e/d/(3e/d/^c/ | (3d/^c/=B/(3c/d/e/ A(g | g/)f/e/d/ f/e/d/c/ | =Bd G(f | %94
 f/)e/d/c/ e/d/c/B/ | Ac A_e | d/c/d/_e/ d/c/d/f/ | e/d/e/f/ e/d/e/g/ | f4 | g4 | %100
 a(3d/c/B/ c(3B/A/G/ | AB AG | F/A/d/G/ B/A/G/F/ | (FF/4)G/4F/4E/4 F/G/A/B/4c/4 | (d4 | %105
 (d)d/4)A/4G/4^F/4 G/A/=B/c/4d/4 | (e4 | e/)(g/(3g/)f/(e/ (3e/)d/(^c/(3c/)=B/A/ | (f2 f/)e/f/g/ | %109
 (e2 e/)d/e/f/ | d2 (3d/e/f/(3g/f/e/ |{d} (^c2 c/)(=B/4A/4B/4c/4d/4e/4) | f/e/(d d/)^c/(d | %113
 d/)e/d/^c/ d/e/f/g/ | ab/a/ g/f/e/d/ | ^ce A(g | g/)f/e/d/ (f/e/d/c/) | =Bd G(f | %118
 f/)e/d/c/ (e/d/c/=B/) | A/=B/A/^G/ A/B/c/d/ | ef ed | cd c=B | A2 z (d | d/)e/d/c/ d/e/^f/^g/ | %124
 ae A(c | c/)d/c/=B/ c/d/e/^f/ | gd G(=B | =B/)e/d/e/ (A2 | A2) (=B2 | =B2) (c2 | %130
 c/)=B/c/e/ d/c/d/e/ | d/c/d/f/ e/d/e/f/ | e(3f/e/d/ e(3d/c/=B/ | .c.d .c.=B | A/c/f/=B/ d/c/B/A/ | %135
 (AA/4)=B/4A/4^G/4 A/B/c/d/4e/4 | (f4 | (f)f/4)A/4G/4^F/4 G/A/B/c/4d/4 | (e4 | %139
 e/)(a/(3a/)g/(f/ (3f/)e/(d/(3d/)^c/d/ | d3/2c/4B/4 c3/2B/4A/4 | B3/2A/4G/4 A3/2G/4F/4 | G/gBA^G/ | %143
 A/gfef/ | f/e/(d d/)^c/(d | d/)e/d/^c/ d/e/f/g/ | ab/a/ g/f/e/d/ | ^ce A(g | %148
 g/)f/e/d/ (f/e/d/c/) | =Bd G(f | f/)e/d/c/ e/d/c/B/ | (A2 A/)G/A/c/ | =B/A/B/c/ B/A/B/d/ | %153
 ^c/=B/c/d/ c/B/c/e/ | d4 | e4 | f(3g/f/e/ f(3e/d/^c/ | .d.B .A.G | Fd E^c | d2 z2 |] %160
[M:6/8]"^Adagio e dolce." c2 d G2 A | (3B/A/B/ g(B PB)A z | fe(_e e/)d/4c/4d/=e/4f/4e/f/4g/4 | %163
 (f3 f)e z | G/c/4d/4e/e/4f/4g/g/4f/4 e/e/4f/4g/g/4a/4b/a/4g/4 | (f3 f)e z | %166
 e3/2f/4e/4d/4c/4=B/4A/4 GAB | c/4=B/4AdF/ PFE z :: e2 f =B2 c | (3d/c/d/ G(=B B)Mc z | %170
 (P^f3 f)g/b/4a/4g/4=f/4e/ | Pd/4^c/4d^g/4a/4=b/d/ Pdc/d/(e | e/4)d/4^c/d/AB/ PE2 F | %173
 (3G/F/G/ e(G PG)F z | B/4A/4G/4B/4A/4G/4F/4A/4G/^c/4e/4 (g3 | g/4)f/4e/4d/4eT^c (cd) z | %176
 z z d d/4B/4c/4d/4c/4A/4B/4c/4B/4G/4A/4B/4 | APB(c c/4)A/4B/4c/4B/4G/4A/4B/4A/4F/4G/4A/4 | %178
 (G3 G/)F/4G/4A/A/4B/4c/c/4d/4 | _e/d/4e/4f/d/B/g/ P=e>dc | a2 b e2 f | (3g/f/g/ c(e e)f z | %182
 _A/4G/4Ad/4_e/4f/A/ AG(d | d) (^c2 c)d/_e/4d/4=c/4B/4A/4G/4 | AD z z z (f | %185
 f)e(_e e/)d/4c/4d/=e/4f/4e/f/4g/4 | (f3 f)e(_e | _e)d(_d d/)c/4B/4c/=d/4e/4d/e/4f/4 | (_e3 e)d z | %189
 G/c/4d/4e/e/4f/4g/g/4f/4 e/e/4f/4g/g/4a/4b/a/4g/4 | (f3 f3/2)g/4f/4e/4d/4c/4B/4 |1 Afe (ef) z :|2 %192
 Afe (ef) z |][M:3/8]"^Vivace." A2 d/4e/4f/ | e2 (A | A/)d/c/B/A/G/ | c/4B/4A/B/4A/4G/(F | %197
 F/)G/A/B/A/G/ | ^c/G/A/B/A/G/ | e/G/A/B/A/G/ | F/E/G/F/E/D/ | D/C/=B,/A,/(F | F/)E/e/d/c/=B/ | %203
 A/=B<BA/4B/4 | c>e^g/=b/ | aA(f | f)=B(d | d)^G(=B | =B)E(A | (3A/)G/F/ (3G/F/E/ (3D/E/F/ | %210
 G, (c2 | (3c/)=B/A/ (3B/A/^G/ (3^F/G/A/ | =B, (e2 | (3e/)d/c/ (3d/c/=B/ (3A/B/c/ | D (g2 | %215
 (3g/)f/e/ (3f/e/d/ (3^c/d/e/ | Dd^c | dAd/4e/4f/ | e2 (A | A/)d/c/B/A/G/ | c/4B/4A/B/4A/4G/(F | %221
 F/)G/A/B/A/G/ | ^c/G/A/B/A/G/ | e/G/A/B/A/G/ | F (f2 | f/)e/g/f/e/d/ | ^c/b/a/g/f/e/ | de^c | %228
 d2 z || fe(A | A)^c(e | e)db | e2 z | (3A/^G/A/ (3E/A/=B/ (3c/B/A/ | (3=B/A/B/ (3E/B/c/ (3d/c/B/ | %235
 (3c/=B/A/ (3e/d/c/ (3B/c/A/ | (3^G/A/=B/ (3E/G/B/ (3d/c/B/ | (3c/d/e/ (3A/=B/c/ F | %238
 (3d/e/f/ (3=B/c/d/ G | (3e/f/g/ (3c/d/e/ A | (3f/g/a/ (3d/e/f/ =B/>a/ | (3^g/a/=b/ e z | %242
 (3e/f/g/ (3^c/d/e/ A/>g/ | (3^f/g/a/ d z | (3d/e/f/ (3=B/c/d/ G/>f/ | (e3 | %246
 (3e/)d/e/ (3A/e/f/ (3g/f/e/ | (f3 | (3f/)e/f/ (3=B/d/e/ (3f/e/d/ | cde | fed | e/A/c/=B/A/^G/ | %252
 (3A/E/A/ (3^c/A/c/ (3e/d/c/ | (3d/A/d/ (3f/d/f/ (b | b/)e/a/g/f/e/ | d/e<ed/4e/4 | %256
 f3/2F/4G/4A/4=B/4^c/ | dg(b | b)e(g | g)^ce | e/A/d/c/B/A/ | Bd(g | g)^c/b/a/g/ | fge | d2 z | %265
 (3d/F/G/ (3A/B/c/ (3d/_e/f/ | (3_e/c/d/ (3e/f/g/ (3a/b/c'/ | bf(b | (3b/)a/g/ (3f/a/c'/ (3e/g/b/ | %269
 c2 f/4g/4a/ | g2 (B | B/)A/B/A/G/F/ | c2 z | e/^f<Pfe/4f/4 | (3g/^f/g/ (3d/g/a/ (3b/a/g/ | %275
 (3c'/b/c'/ (3_e/A/B/ (3c/B/A/ | B3 | (=B2 B/)A/4B/4 | (3c/=B/c/ (3G/c/d/ (3_e/d/c/ | dG^F | %280
 G (B2 | (3B/)A/B/ (3g/B/A/ (3G/A/B/ | (A3 | (3A/)G/A/ (3f/A/G/ (3F/G/A/ | (G3 | %285
 (3G/)F/G/ (3e/G/F/ (3E/F/G/ | (3F/E/D/ (3A/G/F/ (d | (3d/)c/=B/ (3f/e/d/ (=b | %288
 (3=b/)c'/a/ (3^g/a/b/ (e | (3e/)c/d/ (3e/^f/^g/ (3a/=b/c'/ | =b2 (e | e/)a/g/f/e/d/ | %292
 g/4f/4e/f/4e/4d/(c | c/)d/e/f/e/d/ | ^g/d/e/f/e/d/ | =b/d/e/f/e/d/ | (c3 | c/)=B/d/c/B/A/ | %298
 ^G/f/e/d/c/=B/ | A=B^G | (3A/E/A/ (3c/A/c/ (3e/c/e/ | (a3 | (3a/)c'/a/ (3^f/a/f/ (3^d/f/d/ | %303
 (=B3 | (3=B/)g/e/ (3B/e/B/ (3G/B/G/ | (3E/^C/E/ (3G/E/G/ (3B/G/B/ | (e3 | %307
 (3e/)g/e/ (3^c/e/c/ (3A/c/A/ | (3F/D/F/ (3A/F/A/ (3d/A/d/ | f (3F/G/A/ (3D/E/F/ | %310
 C (3G/A/B/ (3E/F/G/ | C (3A/B/c/ (3F/G/A/ | D (3B/c/d/ (3G/A/B/ | (3E/F/G/ (3^C/D/E/ A,/>G/ | %314
 (3^F/G/A/ D z | (3d/e/f/ (3=B/c/d/ G/>f/ | (3e/f/g/ c z | (3c/B/c/ (3F/c/d/ (3_e/d/c/ | (d3 | %319
 (3d/)c/d/ (3G/d/e/ (3f/e/d/ | (e3 | (3e/)d/e/ (3f/g/a/ (3g/a/f/ | (3c'/b/a/ (3a/g/f/ (3f/_e/d/ | %323
 (3d/c/B/ (3B/A/G/ (3G/A/B/ | (3A/f/e/ (3d/c/B/ (3A/B/G/ | (3F/E/F/ (3C/F/G/ (3A/G/F/ | %326
 (3G/F/G/ (3C/G/A/ (3B/A/G/ | (3A/G/F/ (3c/B/A/ (3G/A/F/ | (3E/F/G/ (3C/E/G/ (3c/B/A/ | BG(D | %330
 D)^F(A | A)G_e | A (a2 | (3a/)^f/g/ (3_e/f/g/ (3d/f/g/ | (3c/^f/g/ (3B/f/g/ (3A/f/g/ | B_eA | %336
 G2 z | A2 d/4e/4f/ | e2 (A | A/)d/c/B/A/G/ | c/4B/4A/B/4A/4G/(F | F/)G/A/B/A/G/ | ^c/G/A/B/A/G/ | %343
 e/G/A/B/A/G/ | F/E/G/F/E/D/ | D/C/=B,/A,/(F | F/)E/e/d/c/=B/ | A/=B<BA/4B/4 | c>e^g/=b/ | aA(f | %350
 f)=B(d | d)^G(=B | =B)E(A | (3A/)G/F/ (3G/F/E/ (3D/E/F/ | G, (c2 | %355
 (3c/)=B/A/ (3B/A/^G/ (3^F/G/A/ | =B, (e2 | (3e/)d/c/ (3d/c/=B/ (3A/B/c/ | D (g2 | %359
 (3g/)f/e/ (3f/e/d/ (3^c/d/e/ | Dd^c | dAd/4e/4f/ | e2 (A | A/)d/c/B/A/G/ | c/4B/4A/B/4A/4G/(F | %365
 F/)G/A/B/A/G/ | ^c/G/A/B/A/G/ | e/G/A/B/A/G/ | F (f2 | f/)e/g/f/e/d/ | ^c/b/a/g/f/e/ | de^c | %372
 d2 z |] %373
V:2
 z4 | z4 | z4 | z4 | z4 | z4 | z4 | z4 | c/=B/(A A/)^G/(A | A/)=B/A/^G/ A/B/c/d/ | %10
 ef/e/ d/c/=B/A/ | ^G=B E(d | d/)c/=B/A/ (c/B/A/G/) | ^FA D(c | c/)=B/A/G/ (B/A/G/F/) | %15
 (E2 E/)D/E/G/ | ^F/E/F/G/ F/E/F/A/ | ^G/^F/G/A/ G/F/G/=B/ | A4 | =B4 | c(3d/c/=B/ c(3B/A/^G/ | %21
 .A.F .E.D | CA =B,^G | A z z2 | (DD/4)E/4D/4^C/4 D/E/F/G/4A/4 | (B4 | %26
 B)B/4D/4C/4=B,/4 C/D/E/F/4G/4 | (A4 | A/)G/4F/4(G G/)F/4E/4(F | F/)E/4D/4(E E/)D/4^C/4(D | %30
 D)^C F=B, | EA, A^C | DB AG | FG FE | D2 z (G | G/)A/G/F/ G/A/=B/^c/ | dA D(F | %37
 F/)G/F/E/ F/G/A/=B/ | cG C(E | E/)A/G/A/ (D2 | D2) (E2 | E2) (F2 | F/)E/F/A/ G/F/G/A/ | %43
 G/F/G/B/ A/G/A/B/ | A(3B/A/G/ A(3G/F/E/ | .F.G .F.E | D/F/B/E/ G/F/E/D/ | D2 z2 | z4 | z2 z (F | %50
 F)(3E/D/C/ BA | A(G G/)A/B/c/ | de/^f/ gf/e/ | d/c/B/A/ GB | BA z g | g^f z f | %56
 (3g/d/B/(3G/B/d/ (3f/d/B/(3G/B/d/ | (3_e/c/B/(3G/B/c/ (3e/c/B/(3G/B/c/ | %58
 (3_e/c/A/(3F/A/c/ (3e/c/_A/(3F/A/c/ | (3d/B/_A/(3F/A/B/ (3d/B/A/(3F/A/B/ | %60
 d/c/4=B/4(c c/)_B/4A/4(B | B/)A/4G/4(A A/)G/4^F/4(G | G)^F BE | AD d^F | G(3_e/d/c/ d(3c/B/A/ | %65
 Bc BA | G/B/_e/A/ c/B/A/G/ | (GG/4)_E/4D/4^C/4 D/=E/^F/G/4A/4 | (B4 | %69
 (B)B/4)D/4C/4=B,/4 C/D/_E/F/4G/4 | (A4 | (A)A/4)C/4B,/4A,/4 B,/C/D/_E/4F/4 | (G2 G/)F/G/B/ | %73
 A/G/A/B/ A/G/A/c/ | PB4 | Mc2 z D/_E/ | FG/A/ BA/G/ | F/_E/D/C/ B,D | PDC z B | BA z2 | z2 (G2 | %81
 (G2) G/)G,/(C | C)=B,/4A,/4G,/ F_E | _ED z D | _E/D/(E E/)D/E | _EF, z E | D/^C/(D D/)C/D | %87
 DE, z D | ^CE A,C | DF A,D/^C/ | D=B, ^G,2 | A,2 z2 | z2 z (A | A/)G/F/E/ G/F/E/D/ | CE G,(G | %95
 G/)F/_E/D/ F/E/D/C/ | B,F (G2 | G2) (A2 | A/)G/A/c/ B/A/B/c/ | B/A/B/d/ c/B/c/d/ | %100
 c(3B/A/G/ A(3G/F/E/ | FD CB, | A,F G,E | (F4 | (F)F/4)C/4B,/4A,/4 B,/C/D/E/4F/4 | (G4 | %106
 (G)G/4)D/4C/4=B,/4 C/D/E/F/4G/4 | (A4 | A)F/E/4D/4 (B2 | B)A/B/4G/4 (A2 | A/)G/F/G/ G>A | A2 z2 | %112
 z4 | z4 | z4 | z4 | z4 | z4 | z4 | z4 | c/=B/(A A/)^G/(A | A/)=B/A/^G/ A/B/c/d/ | %122
 ef/e/ d/c/=B/A/ | ^G=B E(d | d/)c/=B/A/ (c/B/A/G/) | ^FA D(c | c/)=B/A/G/ (B/A/G/F/) | %127
 (E2 E/)D/E/G/ | ^F/E/F/G/ F/E/F/A/ | ^G/^F/G/A/ G/F/G/=B/ | A4 | =B4 | c(3d/c/=B/ c(3B/A/^G/ | %133
 .A.F .E.D | CA =B,^G | A z z2 | (DD/4)E/4D/4^C/4 D/E/F/G/4A/4 | (B4 | %138
 B)B/4D/4C/4=B,/4 C/D/E/F/4G/4 | (A4 | A/)G/4F/4(G G/)F/4E/4(F | F/)E/4D/4(E E/)D/4^C/4(D | %142
 D)^C F=B, | EA, A^C | DB AG | FG FE | D2 z (G | G/)A/G/F/ G/A/=B/^c/ | dA D(F | %149
 F/)G/F/E/ F/G/A/=B/ | cG C(E | E/)A/G/A/ (D2 | D2) (E2 | E2) (F2 | F/)E/F/A/ G/F/G/A/ | %155
 G/F/G/B/ A/G/A/B/ | A(3B/A/G/ A(3G/F/E/ | .F.G .F.E | D/F/B/E/ G/F/E/D/ | D2 z2 |] %160
[M:6/8] A2 B E2 F | (3G/F/G/ C(E E)MF z | z6 | BA(_A A/)G/4F/4G/=A/4B/4A/B/4c/4 | (B3 B)A z | %165
 D/G/4A/4=B/B/4c/4d/d/4c/4 B/B/4c/4d/d/4e/4f/e/4d/4 | c3 c3/2d/4c/4=B/4A/4G/4F/4 | Ec=B (Bc) z :: %168
 G2 A D2 E | (3F/E/F/ d(F PF)E z | _E/4D/4EA/4B/4c/E/ PED z | (P^G3 G)A/B/4A/4=G/4F/4E/ | %172
 F2 G ^C2 D | (3E/D/E/ A,(^C MC)D z | z2 z E/4D/4^C/4E/4D/4C/4=B,/4D/4C/E/4A/4 | %175
 (dd/4)^c/4=B/4A/4e/G/ PGF(_A | _A/4)F/4G/4A/4G/4_E/4F/4G/4F/4D/4E/4F/4 EPF(G | %177
 G/4)_E/4F/4G/4F/4D/4E/4F/4E/4C/4D/4E/4 (D3 | D/)C/4D/4E/E/4F/4G/G/4A/4 B/A/4B/4c/A/(F | %179
 F)B(d d/4)c/4=B/4c/4 (g2 | g/)f/4e/4f/cd/ G2 A | (3B/A/B/ g(B PB)A(c | %182
 c) (=B2 B)c/d/4_e/4d/4c/4_B/4A/4 | G/4^F/4G^c/4d/4e/G/ GF/A/(=c | %184
 c)=B(_B B/)A/4G/4A/=B/4c/4B/c/4d/4 | (c3 c)=B(_B | B)A(_A A/)G/4F/4G/=A/4B/4A/B/4c/4 | (B3 B)A z | %188
 C/F/4G/4A/A/4B/4c/c/4B/4 A/A/4B/4c/c/4d/4_e/d/4c/4 | (B3 B)A z | A3/2B/4A/4G/4F/4E/4D/4 CDE |1 %191
 F/4E/4DGB,/ PB,A, z :|2 F/4E/4DGB,/ PB,A, z |][M:3/8] z3 | z3 | z3 | z3 | z3 | z3 | z3 | z3 | %201
 E2 A/4=B/4c/ | =B2 (E | E/)A/G/F/E/D/ | G/4F/4E/F/4E/4D/(C | C/)D/E/F/E/D/ | ^G/D/E/F/E/D/ | %207
 =B/D/E/F/E/D/ | C/=B,/D/C/B,/A,/ | B, (B2 | (3B/)A/G/ (3A/G/^F/ (3E/F/G/ | A, (d2 | %212
 (3d/)c/=B/ (3c/B/A/ (3^G/A/B/ | C (f2 | (3f/)e/d/ (3e/d/^c/ (3=B/c/d/ | E (a2 | %216
 (3a/)g/f/ (3b/a/g/ (3f/g/e/ | f/e/d/c/(B | B/)E/A/G/F/E/ | D/E<ED/4E/4 | F>A^c/e/ | dD(B | B)E(G | %223
 G)^C(E | E/)A,/D/C/B,/A,/ | B,D(G | G)^C/B/A/G/ | FGE | F2 z || (3D/^C/D/ (3A,/D/E/ (3F/E/D/ | %230
 (3E/D/E/ (3A,/E/F/ (3G/F/E/ | (3F/E/D/ (3A/G/F/ (3E/F/D/ | (3^C/D/E/ (3A,/C/E/ (3G/F/E/ | FA(D | %234
 D)^G(=B | =B)Af | =B2 z | z (3c/d/e/ (3A/=B/c/ | F (3d/e/f/ (3=B/c/d/ | G (3e/f/g/ (3c/d/e/ | %240
 A (3f/g/a/ (3d/e/f/ | (3=B/c/d/ (3^G/A/B/ E/>d/ | (3^c/d/e/ A z | (3A/B/c/ (3^F/G/A/ D/>c/ | %244
 (3=B/c/d/ G z | (3G/F/G/ (3C/G/A/ (3B/A/G/ | (A3 | (3A/)G/A/ (3D/A/=B/ (3c/B/A/ | (=B3 | %249
 (3=B/)^G/A/ (3F/G/A/ (3E/G/A/ | (3D/^G/A/ (3C/G/A/ (3=B,/G/A/ | CA=B, | ^C z z | A,2 D/4E/4F/ | %254
 E2 (A, | A,/)D/C/B,/A,/G,/ | C/4B,/4A,/B,/4A,/4G,/(F, | F,/)G,/A,/B,/A,/G,/ | ^C/G,/A,/B,/A,/G,/ | %259
 E/G,/A,/B,/A,/G,/ | F, (F2 | F/)E/G/F/E/D/ | ^C/B/A/G/F/E/ | DE^C | D2 z | F2 B/4c/4d/ | c2 (_E | %267
 _E/)D/E/D/C/B,/ | F2 z | (3A/C/D/ (3E/F/G/ (3A/B/c/ | (3B/G/A/ (3B/c/d/ (3e/f/g/ | fc(f | %272
 (3f/)e/d/ (3c/e/g/ (3B/d/f/ | (3G/c/d/ (3_e/A/B/ (3c/B/A/ | d^F(G | G)^F(A | %276
 (3A/)G/A/ (3D/G/A/ (3B/A/G/ | (3_A/G/A/ (3D/F/G/ (3A/G/F/ | (G3 | (3G/)^F/G/ (3_e/A/B/ (3c/B/A/ | %280
 (3B/A/B/ (3G/B/c/ (3d/c/B/ | cE(c | (3c/)G/A/ (3F/A/B/ (3c/B/A/ | BD(B | %284
 (3B/)F/G/ (3D/G/A/ (3B/A/G/ | A^C(A | A) (3F/E/D/ (3A/G/F/ | (d (3d/)c/=B/ (3f/e/d/ | %288
 (e (3e/)f/e/ (3d/c/=B/ | (3c/e/d/ (3c/=B/A/ (f | f/)=B/e/d/c/B/ | A/=B<BA/4B/4 | %292
 c3/2C/4D/4E/4^F/4^G/ | Ad(f | f)=B(d | d)^G=B | =B/E/A/G/F/E/ | FA(d | d)^G/f/e/d/ | cd=B | %300
 A z z | (3z/ ^D/^F/ (3A/F/A/ (3c/A/c/ | (^f3 | (3^f/)a/f/ (3^d/f/d/ (3=B/d/B/ | %304
 (3G/E/G/ (3=B/G/B/ (3e/B/e/ | (g3 | (3g/)b/g/ (3e/g/e/ (3^c/e/c/ | (A3 | (3A/)f/d/ (3A/d/A/(F | %309
 (3F/)G/A/ (3D/E/F/ C | (3G/A/B/ (3E/F/G/ C | (3A/B/c/ (3F/G/A/ D | (3B/c/d/ (3G/A/B/ E/>d/ | %313
 (3^c/d/e/ A z | (3A/=B/c/ (3^F/G/A/ D/>c/ | (3=B/c/d/ G z | (3G/A/B/ (3E/F/G/ C/>B/ | (A3 | %318
 (3A/)G/A/ (3D/A/B/ (3c/B/A/ | (B3 | (3B/)A/B/ (3E/G/A/ (3B/A/G/ | (F3 | (F3) | (F3) | F)GE | %325
 FA(C | C)E(G | G)Fd | G2 z | (3G/^F/G/ (3D/G/A/ (3B/A/G/ | (3A/G/A/ (3D/A/B/ (3c/B/A/ | %331
 (3B/A/G/ (3d/c/B/ (3A/B/G/ | (3^F/G/A/ (3D/F/A/ (3c/B/A/ | Bcd | _edc | d/G/B/A/G/^F/ | G2 z | %337
 z3 | z3 | z3 | z3 | z3 | z3 | z3 | z3 | E2 A/4=B/4c/ | =B2 (E | E/)A/G/F/E/D/ | %348
 G/4F/4E/F/4E/4D/(C | C/)D/E/F/E/D/ | ^G/D/E/F/E/D/ | =B/D/E/F/E/D/ | C/=B,/D/C/B,/A,/ | B, (B2 | %354
 (3B/)A/G/ (3A/G/^F/ (3E/F/G/ | A, (d2 | (3d/)c/=B/ (3c/B/A/ (3^G/A/B/ | C (f2 | %358
 (3f/)e/d/ (3e/d/^c/ (3=B/c/d/ | E (a2 | (3a/)g/f/ (3b/a/g/ (3f/g/e/ | f/e/d/c/(B | B/)E/A/G/F/E/ | %363
 D/E<ED/4E/4 | F>A^c/e/ | dD(B | B)E(G | G)^C(E | E/)A,/D/C/B,/A,/ | B,D(G | G)^C/B/A/G/ | FGE | %372
 F2 z |] %373
V:3
 D, z E, z | F, z z2 | F,, z G,, z | A,, z ^C, z | D, z D,, z | G,, z =B,, z | C, z C,, z | %7
 F,,F, E,D, | A,D C=B, | A,F, E,D, | C, z F,, z | E,, z z2 | A,, z A, z | D, z z2 | G,, z G, z | %15
 C,=B,, ^C,A,, | D,^C, ^D,=B,, | E,D, E,C, | F,E, ^F,D, | G,^F, ^G,E, | A,/^G,/(A, A,/)G,/(A, | %21
 A,/)^G,/A,/G,/ A,/G,/A,/G,/ | A,D, E,E,, | A,,=B,, C,A,, | D,E, F,D, | G,,A,, B,,G,, | C,D, E,C, | %27
 F,,F, G,A, | B, z A, z | G, z F, z | E, z D, z | ^C, z A,, z | D,G, F,E, | D,B,, A,,G,, | %34
 F,, z B,, z | A,, z z2 | D,, z D, z | G,, z z2 | C,, z C, z | F,,E,, ^F,,D,, | G,,^F,, ^G,,E,, | %41
 A,,G,, A,,F,, | B,,A,, =B,,G,, | C,=B,, ^C,A,, | D,/^C,/(D, D,/)C,/(D, | %45
 D,/)^C,/D,/C,/ D,/C,/D,/C,/ | D,G,, A,,A,, | D,,2 z D, | A,,G,, A,,B,, | A,,G,, A,,F,, | %50
 C,/=B,,/(C, C,/)B,,/(C, | C,/)=B,,/C,/B,,/ C,C | B,A, B,C | B,A, B,G, | D/^C/(D D/)C/(D | %55
 D/)^C/D/C/ DD, | G, z G,, z | C, z z2 | F, z F,, z | B,, z z2 | _E, z D, z | C, z B,, z | %62
 A,, z G,, z | ^F,, z D,, z | G,/^F,/(G, G,/)F,/(G, | G,/)^F,/G,/F,/ G,/F,/G,/F,/ | G,C, D,D,, | %67
 G,,A,, B,,G,, | G,,A,, B,,G,, | C,D, _E,C, | F,,G,, A,,F,, | B,,C, D,B,, | _E,D, =E,C, | %73
 F,E, ^F,D, | G,F, G,_E, | A,G, A,F, | D,C, D,_E, | D,C, D,B,, | F,/E,/(F, F,/)E,/(F, | %79
 F,/)E,/F,/E,/ F,D, | _E,D, E,F, | _E,D, E,C, | G,/^F,/(G, G,/)F,/(G, | G,/)^F,/G,/F,/ G,G,, | %84
 C, z C z | F, z z2 | B,, z B, z | E, z z2 | (A,,4 | (A,,4) | (A,,4) | A,,)G,, F,,E,, | %92
 D,, z D, z | G,, z =B,, z | C,, z C, z | F,, z A,, z | B,,A,, =B,,G,, | C,=B,, ^C,A,, | %98
 D,C, D,B,, | E,D, E,C, | F,/E,/(F, F,/)E,/(F, | F,/)E,/F,/E,/ F,/E,/F,/E,/ | F,B,, C,C,, | %103
 F,,G,, A,,F,, | B,,C, D,B,, | =B,,A,, B,,G,, | C,D, E,D, | ^C,=B,, C,A,, | %108
 D,/^C,/(D, D,/)=C,/D,/B,,/ | C,/B,,/(C, C,/)B,,/C,/A,,/ | B,,4 | A,,/A,/G,/A,/ F,/G,/E,/F,/ | %112
 D, z E, z | F, z z2 | F,, z G,, z | A,, z ^C, z | D, z D,, z | G,, z =B,, z | C, z C,, z | %119
 F,,F, E,D, | A,D C=B, | A,F, E,D, | C, z F,, z | E,, z z2 | A,, z A, z | D, z z2 | G,, z G, z | %127
 C,=B,, ^C,A,, | D,^C, ^D,=B,, | E,D, E,C, | F,E, ^F,D, | G,^F, ^G,E, | A,/^G,/(A, A,/)G,/(A, | %133
 A,/)^G,/A,/G,/ A,/G,/A,/G,/ | A,D, E,E,, | A,,=B,, C,A,, | D,E, F,D, | G,,A,, B,,G,, | C,D, E,C, | %139
 F,,F, G,A, | B, z A, z | G, z F, z | E, z D, z | ^C, z A,, z | D,G, F,E, | D,B,, A,,G,, | %146
 F,, z B,, z | A,, z z2 | D,, z D, z | G,, z z2 | C,, z C, z | F,,E,, ^F,,D,, | G,,^F,, ^G,,E,, | %153
 A,,^G,, A,,^F,, | B,,A,, =B,,G,, | C,=B,, ^C,A,, | D,/^C,/(D, D,/)C,/(D, | %157
 D,/)^C,/D,/C,/ D,/C,/D,/C,/ | D,G,, A,,A,, | D,,2 z2 |][M:6/8] F,F,,(F, F,)F,,(F, | %161
 F,)E,D, F,>A,G,/B,/ | A,/C/G,/B,/A,/C/ B,A,G, | D/D,/C,/C/=B,/=B,,/ C,C z | z G,E, C,^C, z | %165
 z D,=B,, G,,^G,, z | A,,G,,F,, E,,F,,G,, | A,,F,,G,, C,,>C,E,/C,/ :: CC,(C C)C,(C | %169
 C)=B,G, C>A,_B,/G,/ | A,CA, B,B,, z | =B,,E,E,, A,,A,^C, | D,D,,(D, D,)D,,(D, | %173
 D,)^C,A,, D,>E,F,/D,/ | G,F,E, ^C=B,A, | B,G,A, D,>_E,C,/D,/ | =B,,=B,G, C,D,_E, | F,G,A, B,G,F, | %178
 E,C,E, F,F,,A,, | B,,D,G,, C,>D,E,/C,/ | F,F,,(F, F,)F,,(F, | F,)E,C, F,>D,_E,/C,/ | %182
 D,F,D, _E,_E,, z | E,A,A,, D,>^F,E,/G,/ | ^F,/A,/G,/A,/=F,/G,/ E,F,D, | %185
 A,/B,/G,/A,/^F,/A,/ G,G,,^C, | D,/E,/C,/D,/=B,,/D,/ C,C^F, | G,/A,/F,/G,/E,/G,/ F,F,, z | %188
 z CA, F,^F, z | z G,E, C,^C, z | D,C,B,, A,,B,,C, |1 D,B,,C, F,,>F,A,/F,/ :|2 D,B,,C, F,,3 |] %193
[M:3/8] D,DD | CCC | B,B,B, | A,A,A, | B,G,E, | A,A,,=B,, | ^C,A,,C, | D,C,=B,, | A,,A,A, | %202
 G,G,G, | F,F,F, | E,E,E, | F,D,=B,, | E,E,,^F,, | ^G,,E,,G,, | A,,=B,,C, | D,E,F, | E,^F,G, | %211
 ^F,^G,A, | ^G,A,=B, | A,=B,C | =B,^CD | ^CA,G, | F,G,A, | D,DD | CCC | B,B,B, | A,A,A, | B,G,E, | %222
 A,A,,=B,, | ^C,A,,C, | D,D,,D, | G,,B,,G,, | A,,2 z | B,,G,,A,, | D,,F,,A,, || D, z z | ^C, z z | %231
 D,F,,G,, | A,,^C,A,, | D, z z | ^G,, z z | A,,C,D, | E,^G,,E,, | A,,A,,A,, | =B,,B,,B,, | C,C,C, | %240
 D,D,D, | E, z ^G, | A, z ^C, | D, z ^F, | G, z =B,, | C,C,C, | ^C,C,C, | D,D,D, | ^G,,G,,G,, | %249
 A,,=B,,C, | D,E,F, | E,D,E, | A,,A,G, | F,DD | CCC | B,B,B, | A,A,A, | B,G,E, | A,A,,=B,, | %259
 ^C,A,,C, | D,D,,D, | G,,B,,G,, | A,,2 z | B,,G,,A,, | D,,D,C, | B,,B,,B,, | B,,B,,B,, | %267
 B,,A,,G,, | F,,A,,D, | F,F,F, | F,F,F, | F,E,D, | C,E,G, | CB,A, | B,A,G, | A,C^F, | G,F,_E, | %277
 F,_E,D, | _E,CA,, | B,,C,D, | G,,G,F, | E,C,E, | F,,F,E, | D,B,,D, | E,,E,D, | ^C,A,,C, | %286
 D,,D,C, | =B,,C,D, | ^G,,E,,G,, | A,,A,A, | G,G,G, | F,F,F, | E,E,E, | F,D,=B,, | E,E,,^F,, | %295
 ^G,,E,,G,, | A,,C,A,, | D,F,D, | E,2 z | F,D,E, | A,,A,G, | ^F,2 E, | ^D,2 ^F, | G,,A,,=B,, | %304
 E,,G,,=B,, | E,2 D, | ^C,2 E, | F,,G,,A,, | D,,F,,A,, | D,D,D, | E,E,E, | F,F,F, | G,G,G, | %313
 A, z ^C, | D, z ^F, | G, z =B,, | C, z E, | F,F,F, | ^F,F,F, | G,G,G, | ^C,C,C, | D,C,B,, | %322
 A,,F,,A,, | B,,G,,B,, | C,B,,C, | F,, z z | E,, z z | F,,A,,B,, | C,E,,^F,, | G,, z z | ^F,, z z | %331
 G,,B,,C, | D,^F,D, | G,A,B, | C,D,_E, | D,C,D, | G,,/G,/ (3F,/G,/E,/ (3E,/F,/D,/ | D,DD | CCC | %339
 B,B,B, | A,A,A, | B,G,E, | A,A,,=B,, | ^C,A,,C, | D,C,=B,, | A,,A,A, | G,G,G, | F,F,F, | E,E,E, | %349
 F,D,=B,, | E,E,,^F,, | ^G,,E,,G,, | A,,=B,,C, | D,E,F, | E,^F,G, | ^F,^G,A, | ^G,A,=B, | A,=B,C | %358
 =B,^CD | ^CA,G, | F,G,A, | D,DD | CCC | B,B,B, | A,A,A, | B,G,E, | A,A,,=B,, | ^C,A,,C, | %368
 D,D,,D, | G,,B,,G,, | A,,2 z | B,,G,,A,, | D,,2 z |] %373

